X:445
T: Kids in the Pool
C: BB
R: jig
Q: 1/8=320
M: 6/8
L: 1/8
K: Dmix
A | "D"d^cd def | "C"cBc cGE | "D"d^cd def | "Am"agf "G"gfe |
"D"d^cd def | "C"cBc cGE | "D"DAA "Am"cBA | "C"GEC "D"D2 :|
e |"D"fdd a2 f | "G"bag "D"fed | "C"ecc g2 e | "Am"agf "Em"ede |
"D"fdd Add | "C"cBc cGE | "D"DEG "Am"ABc | "C"GEC "D"D2 :|

%%%%%%%%%%%%%%%%%%%%%%%%%%%%%%%%%%%%%%%%%%%

